X:568
T:Pirn Reel, The 
C:Joe Buchanan's Scottish Tome - Page 151.2
I:151 2
R:Reel
Z:Carl Allison
L:1/8
M:4/4
K:A
|:E | "A"AGAB cABc | "D"dcde "Bm"fefg | "A"a3 f "F#m"efed | "Bm"c2 B2 "E"B2 E2 |
"A"AGAB "A7"cABc | "D"dcde "Bm"fefg | "A"a3 f "E7"efed | "A" c2"D" A2"A" A3 :|
"E"GABc dBGB |"A" ABcd e2 E2 |"D" FGAF "A"EAce |"Bm" c2 B2 "E"B2 A2 |
"E"GABc dBGB | "A"ABcd e2 E2 |"D" FGAF "E7"EedB |"A" c2 A2 A4 |
"E"GABc dBGB | "A"ABcd e2 E2 |"D" FGAF "A"EAce |"Bm" c2 B2 "E"B2 E2 |
"A"AGAB "A7"cABc | "D"dcde "Bm"fefg | "A"a3 f "E7"efed | "A"c2 "D"A2 "A"A4 |]

